dist/img/card/card-icon4.svg

<svg width="14" height="14" viewBox="0 0 14 14" fill="none" xmlns="http://www.w3.org/2000/svg">
<path fill-rule="evenodd" clip-rule="evenodd" d="M7 1C8.91261 1 10.4688 2.55612 10.4688 4.46875C10.4688 6.38138 8.91261 7.9375 7 7.9375C4.36644 7.9375 2.19606 9.95892 1.95898 12.5317C1.93522 12.7895 1.72763 13 1.46875 13C1.20987 13 0.998091 12.7898 1.01789 12.5317C1.12727 11.1055 1.73523 9.77949 2.75734 8.75735C3.41087 8.10385 4.1887 7.62009 5.03737 7.3273C4.12844 6.70117 3.53125 5.65344 3.53125 4.46875C3.53125 2.55612 5.08739 1 7 1ZM4.46875 4.46875C4.46875 5.86447 5.60427 7 7 7C8.39573 7 9.53125 5.86447 9.53125 4.46875C9.53125 3.07303 8.39573 1.9375 7 1.9375C5.60427 1.9375 4.46875 3.07303 4.46875 4.46875Z" fill="#BFC0C4"/>
<path d="M9.01562 10.187C8.75674 10.187 8.54688 10.3969 8.54688 10.6558C8.54688 10.9147 8.75674 11.1245 9.01562 11.1245H10.3047V12.5145C10.3047 12.7734 10.5146 12.9833 10.7734 12.9833C11.0323 12.9833 11.2422 12.7734 11.2422 12.5145V11.1245H12.5312C12.7901 11.1245 13 10.9147 13 10.6558C13 10.3969 12.7901 10.187 12.5312 10.187H11.2422V8.73772C11.2422 8.47884 11.0323 8.26897 10.7734 8.26897C10.5146 8.26897 10.3047 8.47884 10.3047 8.73772V10.187H9.01562Z" fill="#BFC0C4"/>
<path fill-rule="evenodd" clip-rule="evenodd" d="M7 1C8.91261 1 10.4688 2.55612 10.4688 4.46875C10.4688 6.38138 8.91261 7.9375 7 7.9375C4.36644 7.9375 2.19606 9.95892 1.95898 12.5317C1.93522 12.7895 1.72763 13 1.46875 13C1.20987 13 0.998091 12.7898 1.01789 12.5317C1.12727 11.1055 1.73523 9.77949 2.75734 8.75735C3.41087 8.10385 4.1887 7.62009 5.03737 7.3273C4.12844 6.70117 3.53125 5.65344 3.53125 4.46875C3.53125 2.55612 5.08739 1 7 1ZM4.46875 4.46875C4.46875 5.86447 5.60427 7 7 7C8.39573 7 9.53125 5.86447 9.53125 4.46875C9.53125 3.07303 8.39573 1.9375 7 1.9375C5.60427 1.9375 4.46875 3.07303 4.46875 4.46875Z" stroke="#BFC0C4" stroke-width="0.5"/>
<path d="M9.01562 10.187C8.75674 10.187 8.54688 10.3969 8.54688 10.6558C8.54688 10.9147 8.75674 11.1245 9.01562 11.1245H10.3047V12.5145C10.3047 12.7734 10.5146 12.9833 10.7734 12.9833C11.0323 12.9833 11.2422 12.7734 11.2422 12.5145V11.1245H12.5312C12.7901 11.1245 13 10.9147 13 10.6558C13 10.3969 12.7901 10.187 12.5312 10.187H11.2422V8.73772C11.2422 8.47884 11.0323 8.26897 10.7734 8.26897C10.5146 8.26897 10.3047 8.47884 10.3047 8.73772V10.187H9.01562Z" stroke="#BFC0C4" stroke-width="0.5"/>
</svg>

<svg width="14" height="14" fill="none" xmlns="http://www.w3.org/2000/svg"><path fill-rule="evenodd" clip-rule="evenodd" d="M7 1a3.473 3.473 0 013.469 3.469A3.473 3.473 0 017 7.937a5.07 5.07 0 00-5.041 4.595.505.505 0 01-.49.468.442.442 0 01-.451-.468 5.955 5.955 0 011.74-3.775 5.976 5.976 0 012.28-1.43A3.468 3.468 0 017 1zM4.469 4.469A2.534 2.534 0 007 7a2.534 2.534 0 002.531-2.531A2.534 2.534 0 007 1.937 2.534 2.534 0 004.469 4.47z" fill="#BFC0C4"/><path d="M9.016 10.187a.469.469 0 000 .938h1.289v1.39a.469.469 0 10.937 0v-1.39h1.29a.469.469 0 100-.938h-1.29v-1.45a.469.469 0 00-.937 0v1.45h-1.29z" fill="#BFC0C4"/><path clip-rule="evenodd" d="M7 1a3.473 3.473 0 013.469 3.469A3.473 3.473 0 017 7.937a5.07 5.07 0 00-5.041 4.595.505.505 0 01-.49.468.442.442 0 01-.451-.468 5.955 5.955 0 011.74-3.775 5.976 5.976 0 012.28-1.43A3.468 3.468 0 017 1zM4.469 4.469A2.534 2.534 0 007 7a2.534 2.534 0 002.531-2.531A2.534 2.534 0 007 1.937 2.534 2.534 0 004.469 4.47z" stroke="#BFC0C4" stroke-width=".5"/><path d="M9.016 10.187a.469.469 0 000 .938h1.289v1.39a.469.469 0 10.937 0v-1.39h1.29a.469.469 0 100-.938h-1.29v-1.45a.469.469 0 00-.937 0v1.45h-1.29z" stroke="#BFC0C4" stroke-width=".5"/></svg>
